X:1
L:1/4
M:4/4
K:G
""G"" G G2 E |""G"" G2 B2 |""G"" G G2 E |""C"" E2""D7"" D2 |""G"" G G2 E |""G"" G2 B2 |""^(C)"" B d""D7"" B A | 
""G"" G4 |]
